svg/editor/font_size_line.svg

<?xml version="1.0" encoding="UTF-8"?>
<svg width="24px" height="24px" viewBox="0 0 24 24" version="1.1" xmlns="http://www.w3.org/2000/svg" xmlns:xlink="http://www.w3.org/1999/xlink">
    <title>font_size_line</title>
    <g id="页面-1" stroke="none" stroke-width="1" fill="none" fill-rule="evenodd">
        <g id="Editor" transform="translate(-336.000000, 0.000000)">
            <g id="font_size_line" transform="translate(336.000000, 0.000000)">
                 <path d="M24,0 L24,24 L0,24 L0,0 L24,0 Z M12.5934901,23.257841 L12.5819402,23.2595131 L12.5108777,23.2950439 L12.4918791,23.2987469 L12.4918791,23.2987469 L12.4767152,23.2950439 L12.4056548,23.2595131 C12.3958229,23.2563662 12.3870493,23.2590235 12.3821421,23.2649074 L12.3780323,23.275831 L12.360941,23.7031097 L12.3658947,23.7234994 L12.3769048,23.7357139 L12.4804777,23.8096931 L12.4953491,23.8136134 L12.4953491,23.8136134 L12.5071152,23.8096931 L12.6106902,23.7357139 L12.6232938,23.7196733 L12.6232938,23.7196733 L12.6266527,23.7031097 L12.609561,23.275831 C12.6075724,23.2657013 12.6010112,23.2592993 12.5934901,23.257841 L12.5934901,23.257841 Z M12.8583906,23.1452862 L12.8445485,23.1473072 L12.6598443,23.2396597 L12.6498822,23.2499052 L12.6498822,23.2499052 L12.6471943,23.2611114 L12.6650943,23.6906389 L12.6699349,23.7034178 L12.6699349,23.7034178 L12.678386,23.7104931 L12.8793402,23.8032389 C12.8914285,23.8068999 12.9022333,23.8029875 12.9078286,23.7952264 L12.9118235,23.7811639 L12.8776777,23.1665331 C12.8752882,23.1545897 12.8674102,23.1470016 12.8583906,23.1452862 L12.8583906,23.1452862 Z M12.1430473,23.1473072 C12.1332178,23.1423925 12.1221763,23.1452606 12.1156365,23.1525954 L12.1099173,23.1665331 L12.0757714,23.7811639 C12.0751323,23.7926639 12.0828099,23.8018602 12.0926481,23.8045676 L12.108256,23.8032389 L12.3092106,23.7104931 L12.3186497,23.7024347 L12.3186497,23.7024347 L12.3225043,23.6906389 L12.340401,23.2611114 L12.337245,23.2485176 L12.337245,23.2485176 L12.3277531,23.2396597 L12.1430473,23.1473072 Z" id="MingCute" fill-rule="nonzero"></path>
                <path d="M21,12 C21.5523,12 22,12.4477 22,13 L22,19 C22,19.5523 21.5523,20 21,20 C20.5946,20 20.2456,19.7588 20.0886,19.4121 C19.4807,19.785 18.7654,20 18,20 C15.7909,20 14,18.2092 14,16 C14,13.7909 15.7909,12 18,12 C18.7654,12 19.4807,12.215 20.0886,12.5879 C20.2456,12.2412 20.5946,12 21,12 Z M8.00003,4 C8.73237,4 9.38095,4.47279 9.60506,5.17 L13.9521,18.694 C14.1211,19.2198 13.8318,19.783 13.306,19.952 C12.7802,20.121 12.217,19.8318 12.048,19.306 L10.6639,15 L5.33612,15 L3.95205,19.306 C3.78305,19.8318 3.21981,20.121 2.69402,19.952 C2.16823,19.783 1.87899,19.2198 2.048,18.694 L6.39499,5.17 C6.6191,4.47279 7.26768,4 8.00003,4 Z M18,14 C16.8954,14 16,14.8955 16,16 C16,17.1046 16.8954,18 18,18 C19.1046,18 20,17.1046 20,16 C20,14.8955 19.1046,14 18,14 Z M8.00003,6.71232 L5.97898,13 L10.0211,13 L8.00003,6.71232 Z" id="形状" fill="#09244B"></path>
            </g>
        </g>
    </g>
</svg>

<svg xmlns="http://www.w3.org/2000/svg" width="24" height="24"><g fill="none" fill-rule="evenodd"><path d="M24 0v24H0V0h24ZM12.593 23.258l-.011.002-.071.035-.02.004-.014-.004-.071-.035c-.01-.004-.019-.001-.024.005l-.004.01-.017.428.005.02.01.013.104.074.015.004.012-.004.104-.074.012-.016.004-.017-.017-.427c-.002-.01-.009-.017-.017-.018Zm.265-.113-.013.002-.185.093-.01.01-.003.011.018.43.005.012.008.007.201.093c.012.004.023 0 .029-.008l.004-.014-.034-.614c-.003-.012-.01-.02-.02-.022Zm-.715.002a.023.023 0 0 0-.027.006l-.006.014-.034.614c0 .012.007.02.017.024l.015-.002.201-.093.01-.008.004-.011.017-.43-.003-.012-.01-.01-.184-.092Z"/><path fill="#09244B" d="M21 12a1 1 0 0 1 1 1v6a1 1 0 0 1-1.911.412 4 4 0 1 1 0-6.824A1 1 0 0 1 21 12ZM8 4c.732 0 1.381.473 1.605 1.17l4.347 13.524a1 1 0 0 1-1.904.612L10.664 15H5.336l-1.384 4.306a1 1 0 0 1-1.904-.612L6.395 5.17A1.686 1.686 0 0 1 8 4Zm10 10a2 2 0 1 0 0 4 2 2 0 0 0 0-4ZM8 6.712 5.979 13h4.042L8 6.712Z"/></g></svg>
